X:7
T:L'Interdite
R:valse musette
C:Tony Murena (1917-1970) & Roger Erb\'e
Z:id:hn-musette-7
M:3/4
L:1/8
Q:1/4=200
K:Em
GFEFG | (3FGF EG B2 | z GFEFG | (3FGF EG B2 | z GFEFG |
(3FGF EGBe | de^ce=ce | BeAeGe | F AGFGA |
(3GAG FA c2 | z AGFGA | (3GAG FA c2 | z AGFGA | 
(3GAG FAce | ^deceBe | AeGeFe | E GFEFG |
(3FGF EG B2 | z GFEFG | (3FGF EG B2 | z GFEFG |
(3FGF EGBe | =fe^de=de | ceBe^Ge | AcBABc |
(3BcB Ac f2 | z GAGAB | AGFG e2 | z GFEFG |
(3FGF ^EFcB | AGFE^DF | EGBegb | e'2 z2 ||
|: B2 | B^DFAcB | BEGBcB | B^DFAcB | BGBe=fe | 
eAce^fe | eGBefe |1 gfe^deg | f2 z2 :|2 gfe^def | e ||
GFEFG | (3FGF EG B2 | z GFEFG | (3FGF EG B2 | z GFEFG |
(3FGF EGBe | de^ce=ce | BeAeGe | F AGFGA |
(3GAG FA c2 | z AGFGA | (3GAG FA c2 | z AGFGA | 
(3GAG FAce | ^deceBe | AeGeFe | E GFEFG |
(3FGF EG B2 | z GFEFG | (3FGF EG B2 | z GFEFG |
(3FGF EGBe | =fe^de=de | ceBe^Ge | AcBABc |
(3BcB Ac f2 | z GAGAB | AGFG e2 | z GFEFG |
(3FGF ^EFcB | AGFE^DF | EGBegb | e'2 z2 ||
G2 | e2 d2 c2 | d6 | e2 d2 c2 | d6 |
e2 d2 c2 | d2 A3 B | c6- | c2 e2 f2 |
g2 f2 e2 | f6 | g2 f2 e2 | f6 | 
g2 f2 e2 | ^d3 e f2 | e6- | e6 |
=f2 Acdf | e4 d2 | g2 Gceg | B4 A2 |
=f2 Acdf | e4 d2 | g6- | g6 |
a2 Ad=fa | g4 e2 | =f2 Acdf | e4 d2 | 
e2 GAce | d4 B2 | c6- | c ||
GFEFG | (3FGF EG B2 | z GFEFG | (3FGF EG B2 | z GFEFG |
(3FGF EGBe | de^ce=ce | BeAeGe | F AGFGA |
(3GAG FA c2 | z AGFGA | (3GAG FA c2 | z AGFGA | 
(3GAG FAce | ^deceBe | AeGeFe | E GFEFG |
(3FGF EG B2 | z GFEFG | (3FGF EG B2 | z GFEFG |
(3FGF EGBe | =fe^de=de | ceBe^Ge | AcBABc |
(3BcB Ac f2 | z GAGAB | AGFG e2 | z GFEFG |
(3FGF ^EFcB | AGFE^DF | EGBegb | e'2 ||

